!!!!SEGMENT: pl-wtm--r-2474_hertz-michal--wszedy-piesn-nasza-lec.krn
!!!cenid: 18xx:2394
!!!COM: Hertz, Michał
!!!COM-rismID: pe41023359
!!!CDT: 1844/09/28-~1918
!!!CNT: Polish
!!!OTL: Wszędy pieśń nasza leć
!!!PDT:
!!!AGN:
!!!SMS-siglum: PL-Wtm
!!!SMS-shelfmark: R 2474
!!!SMS-shelfwork: W
!!!SMS-variant:
!!!SMS-altvar:
!!!NIFC-rismSourceID: 1001082550
!!!NIFC-islandoraID:
!!!URL-pdf-islandora:
!!!URL-scan:
!!!ONB-nifc:
!!!AIN: 2 empty
!!!key:
**kern	**kern	**text	**dynam
*part2	*part1	*part1	*part1
*staff2	*staff1	*staff1	*
*Iempty	*Iempty	*	*
*I"Basso 1 i 2	*I"Ten 1 i 2	*	*
*clefF4	*clefG2	*	*
*	*ITrd8c12	*	*
*k[b-]	*k[b-]	*	*
*d:	*d:	*	*
*M3/4	*M3/4	*	*
=1	=1	=1	=1
*^	*^	*	*
!	!	!LO:TX:t=P:problem=all\middle or left&colon; global	!	!	!LO:DY:b:rj
!	!	!LO:TX:a:i:t=Hasło.\ndla chóru Esperantystów\nna 4 gł. męskie	!	!	!
8.F/	8.F\	8.A/	8.A\	Wszę-	p
16E/	16E\	16c/	16G\	-dy	.
!	!	!	!	!	!LO:HP:b
4.D/	4.D\	4.f/	4.A\	pie-	<
8E/	8E\	8c/	8G\	-śni	[[
=2	=2	=2	=2	=2	=2
!	!	!	!	!	!LO:HP:b
8.D/	8.D\	8.B-/	8.F\	na-	>
16C/	16C\	16c/	16E\	-sza	.
4F/	4F\	4A/	4F\	leć	.
4r	4ryy	4r	4ryy	.	]
=3	=3	=3	=3	=3	=3
!	!	!	!	!	!LO:DY:b:rj
8.D/	8.BB-\	8.G/	8.D\	i	p
!	!	!	!	!	!LO:HP:b
16D/	16AA\	16A/	16F#X\	Bra-	<
8D/	8GG\	8B-/	8G\	-ter-	.
8D/	8FF#X\	8d/	8A\	-stwo	.
8D/	8GG\	8g/	8B-\	w ser-	.
8D/	8BB-\	8d/	8G\	-ca	[
!!LO:LB:g=original
=4	=4	=4	=4	=4	=4
!	!	!	!	!	!LO:DY:b:rj
8.G/	8.C\	8.f/	8.B-\	w ser-	f
16G/	16C\	16e/	16B-\	-ca	.
!	!	!LO:SIC:v:l:s=nieś	!	!	!
4G/	4E\	4c/	4B-\	nieć	.
4r	4ryy	4r	4ryy	.	.
=5	=5	=5	=5	=5	=5
!	!	!	!	!	!LO:DY:b:rj
8.F/	8.F\	8.A/	8.A\	Niech	p
16E/	16E\	16c/	16G\	pra-	.
!	!	!	!	!	!LO:HP:b
4.D/	4.D\	4.f/	4.A\	-sta-	<
8E/	8E\	8c/	8G\	-ra	[[
=6	=6	=6	=6	=6	=6
!	!	!	!	!	!LO:HP:b
8.D/	8.D\	8.B-/	8.F\	zni-	>
16C/	16C\	16c/	16E\	-ka	.
4F/	4F\	4A/	4F\	pleśń	]
4r	4ryy	4r	4ryy	.	.
!!LO:LB:g=original
=7	=7	=7	=7	=7	=7
!	!	!	!	!	!LO:HP:b
!	!	!	!	!	!LO:DY:b:rj
8.D/	8.BB-\	8.G/	8.D\	gó-	p <
16D/	16AA\	16A/	16F#X\	-rą	.
8D/	8GG\	8B-/	8G\	gó-	.
8D/	8FF#X\	8d/	8A\	-rą	.
4D/	4GG\	4g/	4B-\	pieśń	[[
=8	=8	=8	=8	=8	=8
*2\right	*	*	*2\right	*	*
!	!	!	!	!	!LO:DY:b
[>2B-/	[<2C\	(>2a/	[<2e\	na-	f
8B-/]	8C\]	8g/)	8e\]	.	.
8B-/	8C\	8f/	8c\	-sza	.
=9	=9	=9	=9	=9	=9
*	*	*	*2\left	*	*
!LO:TX:t=P:problem=usunięte ligatury	!	!LO:TX:t=P:problem=usunięte ligatury	!	!	!
2A/	2F\	2f/	2f 2c\	pieśń.	.
4r	4ryy	4r	4ryy	.	.
*v	*v	*	*	*	*
*	*v	*v	*	*
=10	=10	=10	=10
!LO:TX:t=P:problem=usunięte 4FF AA	!LO:TX:t=P:problem=usunięte 4cc ff	!	!
4ryy	4ryy	.	.
4r	4r	.	.
4r	4r	.	.
==	==	==	==
*-	*-	*-	*-
!!!system-decoration: {(s1,s2)}
!!!RDF**kern: > = above
!!!RDF**kern: < = below
!!!ENC: Katarzyna Serwa
!!!END: 2021-06-10
!!!ENC: Antoni Szymański
!!!END: 2021-10-09
!!!YEC: Copyright 2022 Narodowy Instytut Fryderyka Chopina (https://polishscores.org)
!!!YEM: Licence CC BY 4.0 (https://creativecommons.org/licenses/by/4.0)
